svg/food/electric_cooker_fill.svg

<svg xmlns="http://www.w3.org/2000/svg" width="24" height="24" viewBox="0 0 24 24"><g fill="none" fill-rule="evenodd"><path d="M24,0 L24,24 L0,24 L0,0 L24,0 Z M12.5935,23.2578 L12.5819,23.2595 L12.5109,23.295 L12.4919,23.2987 L12.4767,23.295 L12.4057,23.2595 C12.3958,23.2564 12.387,23.259 12.3821,23.2649 L12.378,23.2758 L12.3609,23.7031 L12.3659,23.7235 L12.3769,23.7357 L12.4805,23.8097 L12.4953,23.8136 L12.5071,23.8097 L12.6107,23.7357 L12.6233,23.7197 L12.6267,23.7031 L12.6096,23.2758 C12.6076,23.2657 12.601,23.2593 12.5935,23.2578 Z M12.8584,23.1453 L12.8445,23.1473 L12.6598,23.2397 L12.6499,23.2499 L12.6472,23.2611 L12.6651,23.6906 L12.6699,23.7034 L12.6784,23.7105 L12.8793,23.8032 C12.8914,23.8069 12.9022,23.803 12.9078,23.7952 L12.9118,23.7812 L12.8777,23.1665 C12.8753,23.1546 12.8674,23.147 12.8584,23.1453 Z M12.143,23.1473 C12.1332,23.1424 12.1222,23.1453 12.1156,23.1526 L12.1099,23.1665 L12.0758,23.7812 C12.0751,23.7927 12.0828,23.8019 12.0926,23.8046 L12.1083,23.8032 L12.3092,23.7105 L12.3186,23.7024 L12.3225,23.6906 L12.3404,23.2611 L12.3372,23.2485 L12.3278,23.2397 L12.143,23.1473 Z"/><path fill="#09244B" d="M9,5 C9,3.34315 10.3431,2 12,2 C13.6569,2 15,3.34315 15,5 L16,5 C18.2091,5 20,6.79086 20,9 L4,9 C4,6.79086 5.79086,5 8,5 L9,5 Z M12,4 C12.5523,4 13,4.44772 13,5 L11,5 C11,4.44772 11.4477,4 12,4 Z M21,10 C21.5523,10 22,10.4477 22,11 C22,11.5523 21.5523,12 21,12 L20,12 L20,19 C20,20.6569 18.6569,22 17,22 L7,22 C5.34315,22 4,20.6569 4,19 L4,12 L3,12 C2.44772,12 2,11.5523 2,11 C2,10.4477 2.44772,10 3,10 L21,10 Z M12,13 C10.3431,13 9,14.3431 9,16 C9,17.6569 10.3431,19 12,19 C13.6569,19 15,17.6569 15,16 C15,14.3431 13.6569,13 12,13 Z M12,15 C12.5523,15 13,15.4477 13,16 C13,16.5523 12.5523,17 12,17 C11.4477,17 11,16.5523 11,16 C11,15.4477 11.4477,15 12,15 Z"/></g></svg>

<svg xmlns="http://www.w3.org/2000/svg" width="24" height="24"><g fill="none" fill-rule="evenodd"><path d="M24 0v24H0V0zM12.594 23.258l-.012.002-.071.035-.02.004-.014-.004-.071-.036c-.01-.003-.019 0-.024.006l-.004.01-.017.428.005.02.01.013.104.074.015.004.012-.004.104-.074.012-.016.004-.017-.017-.427c-.002-.01-.009-.017-.016-.018m.264-.113-.014.002-.184.093-.01.01-.003.011.018.43.005.012.008.008.201.092c.012.004.023 0 .029-.008l.004-.014-.034-.614c-.003-.012-.01-.02-.02-.022m-.715.002a.023.023 0 0 0-.027.006l-.006.014-.034.614c0 .012.007.02.017.024l.015-.002.201-.093.01-.008.003-.011.018-.43-.003-.012-.01-.01z"/><path fill="#09244B" d="M9 5a3 3 0 1 1 6 0h1a4 4 0 0 1 4 4H4a4 4 0 0 1 4-4zm3-1a1 1 0 0 1 1 1h-2a1 1 0 0 1 1-1m9 6a1 1 0 1 1 0 2h-1v7a3 3 0 0 1-3 3H7a3 3 0 0 1-3-3v-7H3a1 1 0 1 1 0-2zm-9 3a3 3 0 1 0 0 6 3 3 0 0 0 0-6m0 2a1 1 0 1 1 0 2 1 1 0 0 1 0-2"/></g></svg>
